X: 2014
T: La Princeis Royal
%R: march
B: Henry Playford "Apollo's Banquet", London 1687 (5th Edition)
F: https://archive.org/details/apollosbanquetco01rugg
Z: 2017 John Chambers <jc:trillian.mit.edu>
M: C|
L: 1/8
K: Gm
% - - - - - - - - - -
B>A |\
G2g2 g3^f | g6 ga | b3f f3e | d2 B4 cd | edc>d B3A | A6- A4 :: a2 | a3d d>fe>g |
f2 e4 e>f | d>cd>e c3B | B2 B4 B>A | G2c2 c3=B | c2 c4 f>e | d2b2 a3g | g6 |]
% - - - - - - - - - -

%%sep 1 1 500
%%sep 1 1 500

